X:1
T:Songs for Pianoforte, 1836-37
T:Songs for Pianoforte, 1836-37 
T:Unnumbered
T:Fanny Hensel (née Mendelssohn)
T:P.D.
T:P.D.
T:P.D.
T:P.D.
T:P.D.
T:P.D.
T:P.D.
T:P.D.
T:P.D.
T:P.D.
C:Fanny Hensel (née Mendelssohn)
Z:P.D.
%%score { ( 1 3 ) | ( 2 4 ) }
L:1/8
Q:3/8=144
M:12/8
K:Ab
V:1 treble nm="Piano" snm="Pno."
V:3 treble 
V:2 bass 
V:4 bass 
V:1
"^\n"!mf! C{E}DC CA!<(!F Fdc!<)! |!f!!>(! c2 B!>)!!mf! G{B}AG G!<(!dB Bgf!<)! | %2
!f!!>(! f2 =e!>)!!mf! c{_e}dc c2 c' c{e}dc | c2 c' c{e}=dc c2 c' c2 a | %4
 c2 g G{B}AG G!<(!ec cag!<)! |!f!!>(! g2 f!>)!!mf! =d{f}ed d!<(!af f=d'c'!<)! | %6
!f!!>(! c'2 =b!>)!!mf! g{_b}ag g2 G g{b}ag | g2 G g{b}ag c'2 c e{g}fe | a2 A d{f}ed a2 A d{f}ed | %9
 [Aa]f"^poco ritard  a tempo"[Q:3/8=144]d[Q:3/8=136] [Aa][Q:3/8=128][Af][Q:3/8=120][Ad][Q:3/8=144]"^\n" [Gc]2 z [F=B]2 z | %10
 [Ec]2 z C{E}=DC !>![EA][EA][EA] [EA][EA][EA] | !>![EA]3 [=DG]2 D !>![Fc][Fc][Fc] [Fc][Fc][Fc] | %12
 !>![Fc]3 [F=B]2 z !>![DGB][DGB][DGB] [DGB][DGB][DGB] | %13
 [DGB]3 [CFA]2 F !>![FGd][FGd][FGd] [FGd][FGd][FGd] | [FGd]3 [=EGc]{_E}DC CA!<(!F Fdc!<)! | %15
!f!!>(! c2 B!>)!!mf! G{B}AG!<(! GdB Bgf!<)! |!f!!>(! f2 =e!>)!!mf! c{_e}dc c'2 c c{e}dc | %17
 c'2 c c{e}dc [fc']2 c [e_gc']2 c | [dfc']2 c [dfb]2 B [ca]2 A [cg]2 G | %19
 [ca]2 A [Bf]2 F [fc']2 c [e_gc']2 c | [dfc']2 c [dfb]2 B [ca]2 A [cg]2 G | %21
 [Af]2 z F{A}GF ddd ddd | [d_f]6 [Bdg]6 | [dgb]6 [dgd']6 | %24
 [dgd']2 z [B,DA][B,DA][B,DA] [B,DG]2 z [B,DA][B,DA][B,DA] | %25
 [B,DG]2 (B [DG]2) (d [GB]2) (f [Be]2 =d | [A_d]3) cd=d e2 a c'2 e' | %27
 a'2 g' d'=d'e' _f'2 b e'2 _d' | =b2 c' AB=B c2 f a2 c' | f'2 =e' b=bc' d'2 g c'2 _b | %30
 g2 a gab _c'2 f [=db]2 a | [e^f]2 g a=ab _c'2 f [=db]2 _a | %32
 [Gf]2 g [Ag][Af][Ae]{f} [Be]=de [cg][cf][ce] |{f} [ce]=de [cg][cf][ce] [Be]2 z [ABf]2 z | %34
 [GB^f]2 g [Ag][A=f][Ae]{f} [Be]=de [cg][cf][ce] |{f} [ce]=de [cg][cf][ce] [Beb]2 z [Ad]2 z | %36
 [Ge]EE E{_G}FE EGB eee | e{_g}fe _gb[e'_g'] [d'f']bf [f=a]ec | [dfb]B,B, B,{D}CB, B,DF BBB | %39
 B{d}cB df[bd'] [ac']fc [c=e]BG | [Acf]F,F, F,{A,}G,F, F,A,C [Fc]FF | %41
 [FA=B]F,F, F,{A,}G,F, F,A,=B, [FAc]FF | [FA=d]F,F, F,{A,}G,F, F,A,=D [FAc]FF | %43
 [FA=B]=DF, [FAc]2 z [FA=d]2 z [^Gd]2 z | [=E=A^c]=A,A, A,{C}B,A, A,CE [CA]AA | %45
 [=D^G]=BB B{=d}cB Bdf [d^g]^g^g | [^c=g]A,A, A,{C}B,A, A,^CE [CG]GG | %47
 [=D^F]=AA A{c}BA A^c=d [Af]ff | [Be]3 z =d'f' e'bg e=df | eBG E=DF EGB gfe | %50
 ^c3 =d^c'=e' =d'=a^f dc=e | =d=AF =D^C=E DAd f=ed | [G=dg]3 c=b=d' c'g=e c=Bd | %53
 cGE C=B,=D CGc e=dc | [=Acg]3 ^f=B=d cgc' e'=d'c' | [=ac'g']3 ^f'=B=d cgc' e'=d'c' | %56
 [=ac'g']3 ^f'c'=d' e'c'a ^fec | c'=a^f ec=A afe cA^F |{F} E=DD EDD DBG Ge=d | %59
 =d2 c =A{c}BA Aec c=ag | g2 ^f =d{=f}ed daf f=d'c' | c'2 =b G{B}AG G=d=B Bag | %62
 f2 e z ^fg g2 d z fg | g2 c z =bc' c'2 f z bc' | c'2 =e z =bc' c'2 _e z bc' | %65
 [dd']af [Aa][Af][Ad] [Gc]2 z [F=B]2 z | [Ec]2 z F{A}GF [FAd][FAd][FAd] [FAd][FAd][FAd] | %67
 d3 c3 [Bd_g][Bdg][Bdg] [Bdg][Bdg][Bdg] | _g3 f3 [egc'][egc'][egc'] [egc'][egc'][egc'] | %69
 c'3 =b3 [_dfb][dfb][dfb] [dfb][dfb][dfb] | [dfb]2 z [cfa]2 z [B=eg]2 z [Acf]2 z | %71
 [_Gce]2 z [FBd]2 z [FAc]2 z [FA=B]2 z | [_DG_B]2 z [CFA]2 z [DFd]2 z [=DFA]2 z | %73
 [=EG]2 z [CFc]2 z [DFd]2 z [=DFA]2 z | [=EG]2 z C{_E}DC CAF Fdc | c2 B G{B}AG GdB Bgf | %76
 f2 =e c{_e}dc c2 c' c{e}dc | c2 c' c{e}=dc c2 c' c2 a | c2 g G{B}AG Gec cag | %79
 g2 f =d{f}ed daf ff'e' | e'2 =d' b{_d'}_c'b b2 B b{d'}c'b | b2 B b{d'}_c'b e'2 e e{_g}fe | %82
 c'2 c c{e}=dc c'2 c c{e}dc | c'2 C C{E}=DC A[DF]A A[CE]A | A[=B,=D]G G[B,D]A A[DF]A A[CE]A | %85
 A[=B,=D]G G[B,D]c c[FA]c c[EA]c | c[=DA]=B B[DG]c c[FA]c c[EA]c | c[=DA]=B B[DG]e e[Ac]e e[Gc]e | %88
 e[FAc]=d d[FA=B]g g[ce]g g[_Bce]g | g[Ace]f f[A=B=d]a a[_Bd]f f[AB]d | %90
 =d[FA]=B B[=DF]a a[Bd]f f[AB]d | =d[FA]=B B[=DF]a a[Bd]f f[AB]d | %92
 =d[FA]=B B[=DF]A A[=B,D]F F[B,D]E | [CE]3 cd=d e2 a c'2 e' | a'2 g' d'=d'e' _f'2 b e'2 _d' | %95
 =b2 c' AB=B c2 f a2 c' | f'2 =e' b=bc' d'2 g d'2 c' | c'2 =b- b2 =B b2 _b- b2 _B | %98
 b2 =a- a2 =A a2 _a- a2 _A |{a} _gfg [dd'][db][dg]{a} [dg]fg [dd'][db][dg] | %100
{A} _GFG [Dd][DB][DG] [CF]2 z [C=E]2 z |{A} _GFG [Dd][DB][DG]{A} GFG [Dd][DB][DG] | %102
"^poco riten."[Q:3/8=144]{A,} _G,[Q:3/8=142]"^.2"F,[Q:3/8=140]"^.4"G,[Q:3/8=138]"^.5" D[Q:3/8=136]"^.7"B,[Q:3/8=134]"^.9"G,[Q:3/8=133]"^.1" [F,A,C]2[Q:3/8=129]"^.5" z[K:treble][Q:3/8=127]"^.6" [=G,B,=E]2[Q:3/8=124] z | %103
[Q:3/8=144]"^\n""_a tempo"!<(! [A,CF]CC!<)!!f! C"_e risoluto"{E}DC CAF =EdE | %104
 Fcc c{e}dc caf =ed'e | f!8va(!c'c' c'{e'}d'c' c'a'f' =e'd''e' | f'c'f' =e'd''e' f'c'f' e'd''e' | %107
 f'a'c' f'ac'!8va)! fac fAc | FAC FA,C FAc fac' | f'2 z z3 [A,CA]2 z z3 | [A,CF]3 z z8 |] %111
V:2
 z3 [F,,F,][A,C][A,C] [A,C]2 z | [F,,F,][B,D][B,D] [B,D]2 z [F,,F,][B,D][B,D] [B,D]2 z | %2
 [C,,C,][G,B,C][G,B,C] [G,B,C]2 z [=E,,=E,][G,B,C][G,B,C] [G,B,C]2 z | %3
 [F,,F,][F,A,C][F,A,C] [F,A,C]2 z [G,,G,][CE][CE] [CE]2 z | %4
 [G,,G,][=DF][DF] [DF]2 z [C,C][EG][EG] [EG]2 z | [C,C][FA][FA] [FA]2 z [C,C][FA][FA] [FA]2 z | %6
 [G,,G,][=DF][DF] [DF]2 z =B,,[=B,DF][B,DF] [B,DF]2 z | %7
 C, E2 B,, [B,D=E]2 A,, [A,CF]2 G,, [G,B,E]2 | F,,[A,DF][A,DF] [A,DF]3 F,,[A,DF][A,DF] [A,DF]3 | %9
 F,,2 z [F,F][F,F][F,F] [G,E]2 z [G,=D]2 z | [C,C]2 z z3 !>![F,C][F,C][F,C] [F,C][F,C][F,C] | %11
 !>![F,C]3 [G,=B,]2 z !>![A,=D][A,D][A,D] [A,D][A,D][A,D] | %12
 (!>![A,=D]3 [G,D]2) z !>![F,,F,][F,,F,][F,,F,] [F,,F,][F,,F,][F,,F,] | %13
 !>![=E,,=E,]3 [F,,F,]2 z !>![B,,B,][B,,B,][B,,B,] [B,,B,][B,,B,][B,,B,] | %14
 [B,,B,]3 [C,C]2 z F,,[A,C][A,C] [A,C]2 z | [F,,F,][B,D][B,D] [B,D]2 z [F,,F,][B,D][B,D] [B,D]2 z | %16
 [C,,C,][G,B,C][G,B,C] [G,B,C]3 =E,,[G,B,C][G,B,C] [G,B,C]3 | %17
 F,, [A,C]2 G,, [B,=E]2 A,, [CF]2 =A,, [_E_G]2 | B,, [DF]2 B,, [DF]2 C, [CF]2 C, [C=E]2 | %19
 F,, [F,C]2 G,, [G,C]2 A,, [A,C]2 =A,, [=A,_G]2 | B,, [B,F]2 B,, [B,F]2 C, [CF]2 C, [C=E]2 | %21
 [F,,F,]2 z z3 z3 z3 | ddd ddd _FFF FFF | _F,F,F, F,F,F, _F,,F,,F,, F,,F,,F,, | %24
 E,,2 z [_F,,_F,][F,,F,][F,,F,] [E,,E,]2 z [F,,F,][F,,F,][F,,F,] | %25
 [E,,E,]2 z [E,B,]2 z [E,D]2 z [G,E]2 z | A,,[A,E][A,E] [A,E]2 z C,[CE][CE] [CE]2 z | %27
 B,,[B,D_F][B,DF] [B,DF]2 z G,,[G,B,E][G,B,E] [G,B,E]2 z | %28
 A,,[A,CE][A,CE] [A,CE]2 z A,,[A,CF][A,CF] [A,CF]2 z | %29
 G,,[G,B,D][G,B,D] [G,B,D]2 z =E,,[=E,G,C][E,G,C] [E,G,C]2 z | %30
 F,,[A,C][A,C] E,[F,A,_C][F,A,C] =D,[F,A,B,][F,A,B,] B,,[F,B,][F,B,] | %31
 E,[G,B,][G,B,] E,[F,A,_C][F,A,C] =D,[F,A,B,][F,A,B,] B,,[F,B,][F,B,] | %32
 E,[B,E][B,E] [F,B,E][F,B,E][F,B,E] [G,B,E]2 z [A,E][A,E][A,E] | %33
 [=A,E]2 z [A,E][A,F][A,G] [B,G]2 z [B,=D]2 z | %34
 E,[B,E][B,E] [F,B,E][F,B,E][F,B,E] [G,B,E]2 z [A,CE][A,CE][A,CE] | %35
 [=A,E]2 z [A,E][A,F][A,G] [B,G]2 z [B,F]2 z | [E,,E,]2 z z3 z3[K:treble] [_GB]2 z | %37
 [E_G]2 z[K:bass] [E,E]2 z [F,F]2 z [F,,F,]2 z | [B,,B,]2 z z3 z3 [DF]2 z | %39
 [B,D]2 z [B,,B,]2 z [C,C]2 z [C,,C,]2 z | [F,,F,]2 z z3 z3 [F,A,]2 z | %41
 [=D,,=D,]2 z z3 z3 [C,,C,]2 z | [=B,,,=B,,]2 z z3 z3 C,2 z | =D,2 z F,F,F, F,A,=B, z z2 | %44
 =A,,2 z z3 z3 [=E,=A,]3 | [=A,,F,=B,]2 z z3 z3[K:treble] [F=B]3 | %46
 [=A,=E=A]2 z z3 z3[K:bass] [=E,=A,]3 | [=A,,=D,=A,]3 z3 z3 [A,,D,A,]3 | %48
!ped! [G,,G,][B,E][B,E] [B,E]3 [B,E]3 [G,,G,]3 | %49
 [G,,G,][B,E][B,E] [G,B,]3 [G,B,]3 [G,,G,]3!ped-up! | %50
!ped! [^F,,^F,][=A,=D][A,D] [A,D]3 [A,D]3 [F,,F,]3 | %51
 [=F,,=F,][F,=A,][F,A,] [F,A,]3 [F,A,]3 [F,,F,]3!ped-up! | %52
!ped! [=E,,=E,][G,C][G,C] [G,C]3 [G,C]3 [E,,E,]3 | %53
 _E,,[_E,G,][E,G,] [E,G,]3 [E,G,]3 [C,,C,]3!ped-up! | %54
!ped! [=D,,=D,][=A,=D][A,D] [A,D]3 z3 [C,,C,]3 | %55
 [=D,,=D,][^F,=A,=D][F,A,D] [F,A,D]3 z3 [C,,C,]3!ped-up! | %56
!ped! [=D,,=D,][^F,=A,=D][F,A,D] [F,A,D]3 [C,,C,]3 [E,,E,]3 | [^F,,^F,]3 [=A,,=A,]3 [C,C]3 [E,E]3 | %58
 [=A,C]6!ped-up! G,,[B,=D][B,D] [B,D]3 | G,,[CE][CE] [CE]3 G,,[CE][CE] [CE]3 | %60
 [=D,,=D,][=A,C][A,C] [A,C]3 F,,[F,A,=D][F,A,D] [F,A,D]3 | %61
 G,,[=DF][DF] [DF]3 =B,,[=B,DG][B,DG] [B,DG]3 | C,[CG][CG] [CG]2 z B,,[B,=D][B,D] [B,D]2 z | %63
 =A,,[=A,F][A,F] [A,F]2 z _A,,[_A,C][A,C] [A,C]2 z | %64
 G,,[G,C][G,C] [G,C]2 z G,,[G,C][G,C] [G,C]2 z | F,,2 z [F,F][F,F][F,F] [G,E]2 z [G,=D]2 z | %66
 [C,C]2 z z3 z3 z3 | [F,,,F,,][F,,,F,,][F,,,F,,] [F,,,F,,][F,,,F,,][F,,,F,,] z3 z3 | %68
 [F,,,F,,][F,,,F,,][F,,,F,,] [F,,,F,,][F,,,F,,][F,,,F,,] z3 z3 | %69
 [F,,,F,,][F,,,F,,][F,,,F,,] [F,,,F,,][F,,,F,,][F,,,F,,] z3 z3 | %70
 z [F,,,F,,][F,,,F,,] z [F,,,F,,][F,,,F,,] z [G,,,G,,][G,,,G,,] z [A,,,A,,][A,,,A,,] | %71
 z [=A,,,=A,,][A,,,A,,] z [B,,,B,,][B,,,B,,] z [C,,C,][C,,C,] z [=D,,=D,][D,,D,] | %72
 z [=E,,=E,][E,,E,] z [F,,F,][F,,F,] z [B,,B,][B,,B,] z [=B,,=B,][B,,B,] | %73
 z [C,C][C,C] z [A,,A,][A,,A,] z [B,,B,][B,,B,] z [=B,,=B,][B,,B,] | %74
 z [C,C][C,C] [C,C]2 z [F,,F,][A,C][A,C] [A,C]3 | %75
 [F,,F,][B,D][B,D] [B,D]3 [F,,F,][B,D][B,D] [B,D]3 | %76
 [C,,C,][G,B,C][G,B,C] [G,B,C]3 [=E,,=E,][G,B,C][G,B,C] [G,B,C]3 | %77
 F,,[A,C][A,C] [A,C]3 A,,[CE][CE] [CE]3 | G,,[=DF][DF] [DF]3 [C,C][EG][EG] [EG]3 | %79
 [C,C][FA][FA] [FA]3 _C,[FA][FA] [FA]3 | B,,[FA][FA] [FA]3 =D,[A,B,F][A,B,F] [A,B,F]3 | %81
 E, [_G,E]2 D, [G,_F]2 _C, [G,E]2 B,, [G,E]2 | =A,,[E_G][EG] [EG]3 _A,,[EG][EG] [EG]3 | %83
 G,,[E,G,] z z3 [G,,G,]3 [G,,G,]3 | [G,,,G,,]3- [G,,,G,,]2 [G,,G,] [G,,G,]3 [G,,G,]3 | %85
 [G,,,G,,]6 [G,,G,]3 [G,,G,]3 | [G,,,G,,]3- [G,,,G,,]2 [G,,G,] [G,,G,]3 [G,,G,]3 | %87
 [G,,,G,,]6 [G,,G,]3 [G,,G,]3 | [G,,,G,,]3- [G,,,G,,]2 [G,,G,] [G,,G,]3 [G,,G,]3 | %89
 [G,,,G,,]3- [G,,,G,,]2 [G,,G,] [G,,G,]3 [G,,G,]3 | %90
 [G,,,G,,]3- [G,,,G,,]2 [G,,G,] [G,,G,]3 [G,,G,]3 | %91
 [G,,,G,,]3- [G,,,G,,]2 [G,,G,] [G,,G,]3 [G,,G,]3 | [G,,G,]3 [G,,G,]3 [G,,G,]3 [G,,G,]3 | %93
 A,,[E,A,C][E,A,C] [E,A,C]3 C,[E,A,C][E,A,C] [E,A,C]3 | %94
 B,,[_F,B,D][F,B,D] [F,B,D]3 G,,[E,B,D][E,B,D] [E,B,D]3 | %95
 A,,[E,A,C][E,A,C] [E,A,C]3 A,,[F,A,C][F,A,C] [F,A,C]3 | %96
 G,,[D,G,B,][D,G,B,] [D,G,B,]3 =E,,[C,G,C][C,G,C] [C,G,C]3 | %97
 =D,,[=D,F,=B,][D,F,B,] [D,F,B,]3 _D,,[_D,F,_B,][D,F,B,] [D,F,B,]3 | %98
 C,,[C,F,C][C,F,C] [C,F,C]3 C,,[C,F,C][C,F,C] [C,F,C]3 | %99
 B,,,2 z[K:treble] [B,_GB][B,GB][B,GB] z3 [B,GB][B,GB][B,GB] | %100
 z3 [B,,_G,B,][B,,G,B,][B,,G,B,] [C,A,]2 z [C,=G,]2 z | %101
 z3 [B,,_G,B,][B,,G,B,][B,,G,B,] z3 [B,,G,B,][B,,G,B,][B,,G,B,] | %102
 z3 [B,,D,][B,,D,][B,,D,] C,2 z C,2 z | C,,2 z [C,F,A,]6 [C,G,B,]3 | %104
 [C,,C,]2 z [C,F,A,]6 [C,G,B,]3 | [C,,C,]2 z [C,F,A,]6 [C,G,B,]2 z | %106
 [C,F,A,]2 z [C,G,B,]2 z [C,F,A,]2 z [C,G,B,]2 z | [F,A,C]3 z3 [F,A,C]2 z [F,A,C]2 z | %108
 [F,A,C]2 z z3 A,CF, A,C,F, | F,,2 z z3 [F,,,F,,]2 z z3 | [F,,,F,,]3 z z8 |] %111
V:3
 x9 | x12 | x12 | x12 | x12 | x12 | x12 | x12 | x12 | x12 | x12 | x12 | x12 | x12 | x12 | x12 | %16
 x12 | x12 | x12 | x12 | x12 | x12 | x12 | x12 | x12 | x12 | x12 | x12 | x12 | x12 | x12 | x12 | %32
 x12 | x12 | x12 | x12 | x12 | x12 | x12 | x12 | x12 | x12 | x12 | x3 x3 x3 =DDD | x12 | x12 | %46
 x12 | x12 | x12 | x12 | x12 | x12 | x12 | x12 | x12 | x12 | x12 | x12 | x12 | x12 | x12 | x12 | %62
 x12 | x12 | x12 | x12 | x12 | [=EG]6 x2 x4 | [=Ac]4 x8 | [=df]6 x2 x4 | x12 | x12 | x12 | x12 | %74
 x12 | x12 | x12 | x12 | x12 | x12 | x12 | x12 | x12 | x12 | x12 | x12 | x12 | x12 | x12 | x12 | %90
 x12 | x12 | x12 | x12 | x12 | x12 | x12 | x12 | x12 | x12 | x12 | x12 | x9[K:treble] x3 | x12 | %104
 x12 | x!8va(! x11 | x12 | x6!8va)! x6 | x12 | x12 | x12 |] %111
V:4
 x9 | x12 | x12 | x12 | x12 | x12 | x12 | x12 | x12 | x12 | x12 | x12 | x12 | x12 | x12 | x12 | %16
 x12 | x12 | x12 | x12 | x12 | x12 | x12 | x12 | x12 | x12 | x12 | x12 | x12 | x12 | x12 | x12 | %32
 x12 | x12 | x12 | x12 | x9[K:treble] x3 | x3[K:bass] x9 | x12 | x12 | x12 | x12 | x12 | %43
 z3 C,2 z =B,,2 z _B,,2 z | x12 | x9[K:treble] x3 | x9[K:bass] x3 | x12 | x12 | x12 | x12 | x12 | %52
 x12 | x12 | x12 | x12 | x12 | x12 | ^F,3 =D,3 x2 x4 | x12 | x12 | x12 | x12 | x12 | x12 | x12 | %66
 x12 | x12 | x12 | x12 | x12 | x12 | x12 | x12 | x12 | x12 | x12 | x12 | x12 | x12 | x12 | x12 | %82
 x12 | x12 | x12 | x12 | x12 | x12 | x12 | x12 | x12 | x12 | x12 | x12 | x12 | x12 | x12 | x12 | %98
 x12 | x3[K:treble] x9 | x12 | x12 | x12 | x12 | x12 | x12 | x12 | x12 | x12 | x12 | x12 |] %111

